X: 16
T: Maailman Matti
O: trad Finland
R: shottish
M: C
L: 1/8
K: C
C>E | "C"G2 GA GF ED | C2 E2 G2 cc | "G7"BB G>G A2 B2 | "C"c2 z2 z2 :|
y2c2 | "F"AA F>F A2 c2 | "C"G4 z2 G>G | "G7"FF DE F2 A2 | "C"G4 z2 ||
|: GG | "C"c2 c2 e2 cB | "F"AB cA "C"G2 EF | "G"G2 AF E2 D2 | "C"C4 z2 :|
%%sep 1 1 10cm
